src/activities/babymatch/resource/images/bell.svg

<?xml version="1.0" encoding="UTF-8" standalone="no"?>
<svg
   xmlns:dc="http://purl.org/dc/elements/1.1/"
   xmlns:cc="http://creativecommons.org/ns#"
   xmlns:rdf="http://www.w3.org/1999/02/22-rdf-syntax-ns#"
   xmlns:svg="http://www.w3.org/2000/svg"
   xmlns="http://www.w3.org/2000/svg"
   version="1.0"
   xml:space="preserve"
   height="100"
   width="100"
   id="svg645"><metadata
     id="metadata134"><rdf:RDF><cc:Work
         rdf:about=""><dc:format>image/svg+xml</dc:format><dc:type
           rdf:resource="http://purl.org/dc/dcmitype/StillImage" /><dc:title></dc:title><dc:date>2021</dc:date><dc:creator><cc:Agent><dc:title>Timothée Giet</dc:title></cc:Agent></dc:creator><cc:license
           rdf:resource="http://creativecommons.org/licenses/by-sa/4.0/" /></cc:Work><cc:License
         rdf:about="http://creativecommons.org/licenses/by-sa/4.0/"><cc:permits
           rdf:resource="http://creativecommons.org/ns#Reproduction" /><cc:permits
           rdf:resource="http://creativecommons.org/ns#Distribution" /><cc:requires
           rdf:resource="http://creativecommons.org/ns#Notice" /><cc:requires
           rdf:resource="http://creativecommons.org/ns#Attribution" /><cc:permits
           rdf:resource="http://creativecommons.org/ns#DerivativeWorks" /><cc:requires
           rdf:resource="http://creativecommons.org/ns#ShareAlike" /></cc:License></rdf:RDF></metadata><defs
     id="defs647" /><g
     style="display:inline"
     id="layer2"><circle
       transform="rotate(-30)"
       r="7.7712493"
       cy="17.696747"
       cx="10.109166"
       id="path908"
       style="opacity:1;vector-effect:none;fill:#976e0b;fill-opacity:1;stroke:none;stroke-width:0.38856247;stroke-linecap:round;stroke-linejoin:miter;stroke-miterlimit:4;stroke-dasharray:none;stroke-dashoffset:3.20000005;stroke-opacity:1" /><circle
       transform="rotate(-30)"
       r="4.9482608"
       cy="17.696747"
       cx="10.109166"
       id="path908-3"
       style="opacity:1;vector-effect:none;fill:#f8de68;fill-opacity:1;stroke:none;stroke-width:0.24741304;stroke-linecap:round;stroke-linejoin:miter;stroke-miterlimit:4;stroke-dasharray:none;stroke-dashoffset:3.20000005;stroke-opacity:1" /><path
       id="path839"
       d="M 54.275955,24.713904 C 65.318162,43.839567 90.106067,47.512296 91.578361,50.062384 99.495516,63.775304 22.992863,107.94413 15.075704,94.231216 13.60341,91.681126 22.816688,68.377806 11.774479,49.252141 4.3208262,36.342035 7.7927268,20.383259 19.529186,13.60721 31.265645,6.8311629 46.822303,11.803798 54.275955,24.713904 Z"
       style="opacity:1;vector-effect:none;fill:#976e0b;fill-opacity:1;stroke:none;stroke-width:0.49076477;stroke-linecap:round;stroke-linejoin:miter;stroke-miterlimit:4;stroke-dasharray:none;stroke-dashoffset:3.20000005;stroke-opacity:1" /><ellipse
       transform="rotate(-30)"
       ry="7.3614717"
       rx="40.251076"
       cy="90.746613"
       cx="10.109166"
       id="path842"
       style="opacity:1;vector-effect:none;fill:#eab448;fill-opacity:1;stroke:none;stroke-width:0.46849415;stroke-linecap:round;stroke-linejoin:miter;stroke-miterlimit:4;stroke-dasharray:none;stroke-dashoffset:3.20000005;stroke-opacity:1" /><path
       id="path839-5"
       d="M 52.788521,27.026242 C 62.730783,44.246744 78.726105,47.432215 87.013727,50.955775 74.475957,49.886038 27.724336,76.878101 18.13172,90.724821 19.224039,81.785749 24.463003,66.340658 14.52074,49.120155 7.8095668,37.496063 10.935621,23.126984 21.502979,17.025918 32.070335,10.924852 46.077348,15.402149 52.788521,27.026242 Z"
       style="opacity:1;vector-effect:none;fill:#f8de68;fill-opacity:1;stroke:none;stroke-width:0.44187826;stroke-linecap:round;stroke-linejoin:miter;stroke-miterlimit:4;stroke-dasharray:none;stroke-dashoffset:3.20000005;stroke-opacity:1" /><path
       id="path925"
       d="M 44.733664,70.382938 C 34.95029,76.430329 27.043517,82.41874 22.688269,86.927132 a 14.722944,14.722944 0 0 0 1.358248,3.211396 14.722944,14.722944 0 0 0 20.111915,5.388972 14.722944,14.722944 0 0 0 5.388971,-20.111916 14.722944,14.722944 0 0 0 -4.813739,-5.032646 z"
       style="opacity:1;vector-effect:none;fill:#976e0b;fill-opacity:1;stroke:none;stroke-width:0.49076477;stroke-linecap:round;stroke-linejoin:miter;stroke-miterlimit:4;stroke-dasharray:none;stroke-dashoffset:3.20000005;stroke-opacity:1" /><path
       id="path925-5"
       d="M 44.117899,73.073818 C 36.212332,78.059196 29.65956,82.949364 25.379597,86.949389 a 12.167885,12.167885 0 0 0 0.879986,1.911424 12.167885,12.167885 0 0 0 16.621135,4.453628 12.167885,12.167885 0 0 0 4.45362,-16.621142 12.167885,12.167885 0 0 0 -3.216439,-3.619481 z"
       style="opacity:1;vector-effect:none;fill:#f8de68;fill-opacity:1;stroke:none;stroke-width:0.4055962;stroke-linecap:round;stroke-linejoin:miter;stroke-miterlimit:4;stroke-dasharray:none;stroke-dashoffset:3.20000005;stroke-opacity:1" /></g></svg>

<svg xmlns:dc="http://purl.org/dc/elements/1.1/" xmlns:cc="http://creativecommons.org/ns#" xmlns:rdf="http://www.w3.org/1999/02/22-rdf-syntax-ns#" xmlns="http://www.w3.org/2000/svg" version="1.0" xml:space="preserve" height="100" width="100"><metadata><rdf:RDF><cc:Work><dc:format>image/svg+xml</dc:format><dc:type rdf:resource="http://purl.org/dc/dcmitype/StillImage"/><dc:title/><dc:date>2021</dc:date><dc:creator><cc:Agent><dc:title>Timothée Giet</dc:title></cc:Agent></dc:creator><cc:license rdf:resource="http://creativecommons.org/licenses/by-sa/4.0/"/></cc:Work><cc:License rdf:about="http://creativecommons.org/licenses/by-sa/4.0/"><cc:permits rdf:resource="http://creativecommons.org/ns#Reproduction"/><cc:permits rdf:resource="http://creativecommons.org/ns#Distribution"/><cc:requires rdf:resource="http://creativecommons.org/ns#Notice"/><cc:requires rdf:resource="http://creativecommons.org/ns#Attribution"/><cc:permits rdf:resource="http://creativecommons.org/ns#DerivativeWorks"/><cc:requires rdf:resource="http://creativecommons.org/ns#ShareAlike"/></cc:License></rdf:RDF></metadata><g style="display:inline"><circle transform="rotate(-30)" r="7.7712493" cy="17.696747" cx="10.109166" style="opacity:1;vector-effect:none;fill:#976e0b;fill-opacity:1;stroke:none;stroke-width:.38856247;stroke-linecap:round;stroke-linejoin:miter;stroke-miterlimit:4;stroke-dasharray:none;stroke-dashoffset:3.20000005;stroke-opacity:1"/><circle transform="rotate(-30)" r="4.9482608" cy="17.696747" cx="10.109166" style="opacity:1;vector-effect:none;fill:#f8de68;fill-opacity:1;stroke:none;stroke-width:.24741304;stroke-linecap:round;stroke-linejoin:miter;stroke-miterlimit:4;stroke-dasharray:none;stroke-dashoffset:3.20000005;stroke-opacity:1"/><path d="M54.276 24.714c11.042 19.126 35.83 22.798 37.302 25.348 7.918 13.713-68.585 57.882-76.502 44.17-1.473-2.55 7.74-25.854-3.302-44.98-7.453-12.91-3.981-28.869 7.755-35.645 11.737-6.776 27.293-1.803 34.747 11.107z" style="opacity:1;vector-effect:none;fill:#976e0b;fill-opacity:1;stroke:none;stroke-width:.49076477;stroke-linecap:round;stroke-linejoin:miter;stroke-miterlimit:4;stroke-dasharray:none;stroke-dashoffset:3.20000005;stroke-opacity:1"/><ellipse transform="rotate(-30)" ry="7.3614717" rx="40.251076" cy="90.746613" cx="10.109166" style="opacity:1;vector-effect:none;fill:#eab448;fill-opacity:1;stroke:none;stroke-width:.46849415;stroke-linecap:round;stroke-linejoin:miter;stroke-miterlimit:4;stroke-dasharray:none;stroke-dashoffset:3.20000005;stroke-opacity:1"/><path d="M52.789 27.026c9.942 17.22 25.937 20.406 34.225 23.93-12.538-1.07-59.29 25.922-68.882 39.769 1.092-8.94 6.331-24.384-3.611-41.605-6.711-11.624-3.585-25.993 6.982-32.094 10.567-6.101 24.574-1.624 31.286 10z" style="opacity:1;vector-effect:none;fill:#f8de68;fill-opacity:1;stroke:none;stroke-width:.44187826;stroke-linecap:round;stroke-linejoin:miter;stroke-miterlimit:4;stroke-dasharray:none;stroke-dashoffset:3.20000005;stroke-opacity:1"/><path d="M44.734 70.383c-9.784 6.047-17.69 12.036-22.046 16.544a14.723 14.723 0 0 0 1.359 3.212 14.723 14.723 0 0 0 20.111 5.388 14.723 14.723 0 0 0 5.39-20.111 14.723 14.723 0 0 0-4.814-5.033z" style="opacity:1;vector-effect:none;fill:#976e0b;fill-opacity:1;stroke:none;stroke-width:.49076477;stroke-linecap:round;stroke-linejoin:miter;stroke-miterlimit:4;stroke-dasharray:none;stroke-dashoffset:3.20000005;stroke-opacity:1"/><path d="M44.118 73.074c-7.906 4.985-14.458 9.875-18.738 13.875a12.168 12.168 0 0 0 .88 1.912 12.168 12.168 0 0 0 16.62 4.453 12.168 12.168 0 0 0 4.454-16.62 12.168 12.168 0 0 0-3.216-3.62z" style="opacity:1;vector-effect:none;fill:#f8de68;fill-opacity:1;stroke:none;stroke-width:.4055962;stroke-linecap:round;stroke-linejoin:miter;stroke-miterlimit:4;stroke-dasharray:none;stroke-dashoffset:3.20000005;stroke-opacity:1"/></g></svg>
